X:1
T:The Schooner E.A. Horton
M:6/8
L:1/8
K:D
 G| A2 A A2 G| A2 d d2 e| ddB A2 B| =c3 c2 B| A2 B A2 G| E B,2- B,2 B,/2E/2|\
 G2 D D2 D| D4 GG| G A2 A2 G| A2 d d2 e| d2 =c A2 A| =c3 c2 B| A2 B A2 G|\
 E2- EB,-B, E| G2 G D2 D| D3- D|| G2 G| A2 B AAG| E B,2- B, z E/2E/2|\
 G2- G D2 D| D3- D z D| D2 E F2 G| A d2- d2 e| d2 =c A2 B| c3- c z B/2B/2|\
 GGG G2 A| G2 d d2 e| d2 =c A2 B| =c3 c2- B| A2 B A2 G| E2 E B,2 E|\
 G2 G D2 D| D3||
